icons/editor-header-2-filled.svg

<svg width="25" height="24" viewBox="0 0 25 24" fill="none" xmlns="http://www.w3.org/2000/svg">
<g id="header-02">
<path id="Icon" d="M9.01182 16.8002V11.8156M9.01182 16.8002H7.35028M9.01182 16.8002H10.6734M9.01182 11.8156V6.83097M9.01182 11.8156H16.4887M9.01182 6.83097H7.35028M9.01182 6.83097H10.6734M16.4887 11.8156V16.8002M16.4887 11.8156V6.83097M16.4887 16.8002H14.8272M16.4887 16.8002H18.1503M16.4887 6.83097H14.8272M16.4887 6.83097H18.1503M5.55039 21.6004H19.9504C21.2759 21.6004 22.3504 20.5259 22.3504 19.2004V4.80039C22.3504 3.47491 21.2759 2.40039 19.9504 2.40039H5.55039C4.22491 2.40039 3.15039 3.47491 3.15039 4.80039V19.2004C3.15039 20.5259 4.22491 21.6004 5.55039 21.6004Z" stroke="black" stroke-width="2" stroke-linecap="round" stroke-linejoin="round"/>
</g>
</svg>

<svg xmlns="http://www.w3.org/2000/svg" width="25" height="24" fill="none" viewBox="0 0 25 24"><path stroke="currentColor" stroke-linecap="round" stroke-linejoin="round" stroke-width="2" d="M9.012 16.8v-4.984m0 4.984H7.35m1.662 0h1.661m-1.661-4.984V6.83m0 4.985h7.477M9.012 6.83H7.35m1.662 0h1.661m5.816 4.985V16.8m0-4.984V6.83m0 9.97h-1.662m1.662 0h1.661M16.49 6.83h-1.662m1.662 0h1.661m-12.6 14.77h14.4a2.4 2.4 0 0 0 2.4-2.4V4.8a2.4 2.4 0 0 0-2.4-2.4H5.55a2.4 2.4 0 0 0-2.4 2.4v14.4a2.4 2.4 0 0 0 2.4 2.4"/></svg>
